src/svg/28/list_like_outline_28.svg

<svg fill="none" height="28" viewBox="0 0 28 28" width="28" xmlns="http://www.w3.org/2000/svg"><path d="m21.4605 11.9981c2.5004 0 4.5395 1.9894 4.5395 4.4589 0 2.3217-.913 3.4992-4.4259 6.1894l-1.4638 1.1118c-.8991.6823-2.1235.7202-3.0587.1137l-.1619-.1137-1.5094-1.1467-.5709-.4429c-3.0048-2.3609-3.8094-3.5321-3.8094-5.7116 0-2.4695 2.0391-4.4589 4.5395-4.4589.9294 0 1.7845.2922 2.5506.8489l.2067.1584.202.1723.2171-.1826c.6673-.5343 1.4062-.8617 2.2041-.9631l.2681-.0254zm.0624 1.9983-.2239.007-.1863.0203c-.3314.0512-.6452.177-.9371.3745l-.1724.1271-1.1897 1.0001c-.1871.1573-.4606.1563-.6465-.0025l-1.1259-.9613c-.4775-.3851-.9642-.5642-1.5016-.5642-1.4093 0-2.5395 1.1079-2.5395 2.4596 0 1.4075.4474 2.1109 3.0723 4.1618l.5181.4008 1.5086 1.1461c.2074.1574.4844.1771.7092.059l.0928-.059 1.692-1.2868c2.9313-2.2582 3.407-2.9716 3.407-4.4219 0-1.2976-1.0416-2.3706-2.3165-2.4552zm-13.5229 3.9997c.55228 0 1 .4476 1 .9997s-.44772.9997-1 .9997h-4c-.55228 0-1-.4476-1-.9997s.44772-.9997 1-.9997zm0-5.998c.55228 0 1 .4475 1 .9996 0 .5522-.44772.9997-1 .9997h-4c-.55228 0-1-.4475-1-.9997 0-.5521.44772-.9996 1-.9996zm14-5.9981c.5523 0 1 .44757 1 .99968 0 .5521-.4477.99968-1 .99968h-18c-.55228 0-1-.44758-1-.99968 0-.55211.44772-.99968 1-.99968z" fill="currentColor"/></svg>

<svg width="28" height="28" viewBox="0 0 28 28" fill="none" xmlns="http://www.w3.org/2000/svg">
<path d="M21.4605 12C23.9609 12 26 13.9901 26 16.4604C26 18.7828 25.087 19.9607 21.5741 22.6518L20.1103 23.764C19.2112 24.4464 17.9868 24.4843 17.0516 23.8777L16.8897 23.764L15.3803 22.6168L14.8094 22.1738C11.8046 19.8122 11 18.6406 11 16.4604C11 13.9901 13.0391 12 15.5395 12C16.4689 12 17.324 12.2923 18.0901 12.8492L18.2968 13.0077L18.4988 13.18L18.7159 12.9974C19.3832 12.4629 20.1221 12.1353 20.92 12.0339L21.1881 12.0085L21.4605 12ZM21.5229 13.999L21.299 14.006L21.1127 14.0263C20.7813 14.0775 20.4675 14.2034 20.1756 14.4009L20.0032 14.528L18.8135 15.5285C18.6264 15.6858 18.3529 15.6848 18.167 15.526L17.0411 14.5644C16.5636 14.1791 16.0769 14 15.5395 14C14.1302 14 13 15.1082 13 16.4604C13 17.8683 13.4474 18.572 16.0723 20.6235L16.5904 21.0245L18.099 22.1709C18.3064 22.3284 18.5834 22.3481 18.8082 22.23L18.901 22.1709L20.593 20.8837C23.5243 18.6247 24 17.9111 24 16.4604C24 15.1623 22.9584 14.089 21.6835 14.0044L21.5229 13.999ZM8 18C8.55228 18 9 18.4477 9 19C9 19.5523 8.55228 20 8 20H4.5C3.94772 20 3.5 19.5523 3.5 19C3.5 18.4477 3.94772 18 4.5 18H8ZM8.5 12C9.05228 12 9.5 12.4477 9.5 13C9.5 13.5523 9.05228 14 8.5 14H4.5C3.94772 14 3.5 13.5523 3.5 13C3.5 12.4477 3.94772 12 4.5 12H8.5ZM21.5 6C22.0523 6 22.5 6.44772 22.5 7C22.5 7.55228 22.0523 8 21.5 8H4.5C3.94772 8 3.5 7.55228 3.5 7C3.5 6.44772 3.94772 6 4.5 6H21.5Z" fill="currentColor"/>
</svg>
